X: 144
T: Red Rodrick's Dun Coat
T: Casag Lachdunn Ruairdh Ruaidh
R:Strathspey
S:MacDonald - Skye Collection
N:pg.81
M:C
L:1/8
K:A Dorian
G|A<A B>G A<A A2|G>B g>e dB G2|A<A B<G A<A A2|d>eg>f eA A:|
d|e<e a>e g>ea>e|gage degd|e<ea<e g>ea>g|efge a>fe>f|
e<eg<e a<e g>e|dedc BA G2|edBd A<A A2|G<A B<g fe A<A||


